; generated by PrusaSlicer 2.7.2+win64 on 2024-03-07 at 17:22:15 UTC


;
;

;
;
; 

; external perimeters extrusion width = 0.45mm
; perimeters extrusion width = 0.45mm
; infill extrusion width = 0.45mm
; solid infill extrusion width = 0.45mm
; top infill extrusion width = 0.40mm
; first layer extrusion width = 0.42mm

M73 P0 R124
M201 X2500 Y2500 Z400 E5000 ; sets maximum accelerations, mm/sec^2
M203 X180 Y180 Z12 E80 ; sets maximum feedrates, mm / sec
M204 P1250 R1250 T2500 ; sets acceleration (P, T) and retract acceleration (R), mm/sec^2
M205 X8.00 Y8.00 Z2.00 E10.00 ; sets the jerk limits, mm/sec
M205 S0 T0 ; sets the minimum extruding and travel feed rate, mm/sec

; printing object base_M2.stl id:0 copy 0
; stop printing object base_M2.stl id:0 copy 0

;TYPE:Custom
M862.3 P "MINI" ; printer model check
G90 ; use absolute coordinates
M83 ; extruder relative mode
M104 S170 ; set extruder temp for bed leveling
M140 S60 ; set bed temp
M109 R170 ; wait for bed leveling temp
M190 S60 ; wait for bed temp
M204 T1250 ; set travel acceleration
G28 ; home all without mesh bed level
G29 ; mesh bed leveling 
M204 T2500 ; restore travel acceleration
M104 S215 ; set extruder temp
G92 E0
G1 Y-2 X179 F2400
G1 Z3 F720
M109 S215 ; wait for extruder temp

; intro line
G1 X170 F1000
G1 Z0.2 F720
G1 X110 E8 F900
G1 X40 E10 F700
G92 E0

M221 S95 ; set flow
G21 ; set units to millimeters
G90 ; use absolute coordinates
M83 ; use relative distances for extrusion
M900 K0.2 ; Filament gcode LA 1.5
; ; Filament gcode LA 1.0
M107
;LAYER_CHANGE
;Z:0.2
;HEIGHT:0.2
G1 E-3.2 F4200
G1 Z.4 F720
G1 X72.015 Y65.193 F9000
G1 Z.2 F720
G1 E3.2 F2400
M204 P800
;TYPE:Skirt/Brim
;WIDTH:0.42
G1 F1200
G1 X73.06 Y64.317 E.04275
G1 X74 Y64.123 E.03009
G1 X106 Y64.123 E1.00334
G1 X107.307 Y64.515 E.04278
G1 X108.183 Y65.56 E.04275
G1 X108.377 Y66.5 E.03009
G1 X108.377 Y113.5 E1.47365
G1 X107.985 Y114.807 E.04278
G1 X106.94 Y115.683 E.04275
G1 X106 Y115.877 E.03009
G1 X74 Y115.877 E1.00334
G1 X72.693 Y115.485 E.04278
G1 X71.817 Y114.44 E.04275
G1 X71.623 Y113.5 E.03009
G1 X71.623 Y66.5 E1.47365
G1 X71.997 Y65.25 E.04091
M204 P1000
; printing object base_M2.stl id:0 copy 0
G1 E-2.24 F4200
;WIPE_START
G1 F7200
G1 X72.015 Y65.193 E-.03313
G1 X73.06 Y64.317 E-.75566
G1 X73.363 Y64.255 E-.17121
;WIPE_END
G1 Z.4 F720
G1 X74.787 Y67.287 F9000
G1 Z.2 F720
G1 E3.2 F2400
M204 P800
;TYPE:Perimeter
;WIDTH:0.419999
G1 F1200
G1 X105.213 Y67.287 E.95398
G1 X105.213 Y79.243 E.37487
G1 X105.213 Y112.713 E1.04943
G1 X74.787 Y112.713 E.95398
G1 X74.787 Y67.347 E1.42242
M204 P1000
G1 X74.41 Y66.91 F9000
M204 P800
;TYPE:External perimeter
G1 F1200
G1 X105.59 Y66.91 E.97763
G1 X105.59 Y79.243 E.38669
G1 X105.59 Y113.09 E1.06125
G1 X74.41 Y113.09 E.97763
G1 X74.41 Y66.97 E1.44606
M204 P1000
G1 E-2.24 F4200
M73 P0 R123
;WIPE_START
G1 F7200
G1 X74.41 Y66.91 E-.03325
G1 X76.082 Y66.91 E-.92675
;WIPE_END
G1 Z.4 F720
G1 X78.984 Y88 F9000
G1 Z.2 F720
G1 E3.2 F2400
M204 P800
;TYPE:Perimeter
G1 F1200
G1 X79.39 Y87.499 E.02022
G1 X79.937 Y87.047 E.02225
G1 X80.561 Y86.708 E.02227
G1 X81.239 Y86.496 E.02227
G1 X81.946 Y86.417 E.02231
G1 X82.654 Y86.475 E.02227
G1 X83.338 Y86.667 E.02228
G1 X83.971 Y86.987 E.02224
G1 X84.53 Y87.422 E.02221
G1 X84.993 Y87.957 E.02218
G1 X85.341 Y88.572 E.02216
G1 X85.561 Y89.243 E.02214
G1 X85.643 Y89.943 E.0221
G1 X85.583 Y90.647 E.02215
G1 X85.385 Y91.325 E.02215
G1 X85.056 Y91.951 E.02217
G1 X84.61 Y92.501 E.0222
G1 X84.064 Y92.953 E.02222
G1 X83.439 Y93.292 E.02229
G1 X82.761 Y93.504 E.02227
G1 X82.054 Y93.583 E.02231
G1 X81.346 Y93.525 E.02227
G1 X80.662 Y93.333 E.02228
G1 X80.029 Y93.013 E.02224
G1 X79.47 Y92.578 E.02221
G1 X79.007 Y92.043 E.02218
G1 X78.659 Y91.428 E.02216
G1 X78.439 Y90.757 E.02214
G1 X78.358 Y90.057 E.02209
G1 X78.417 Y89.353 E.02215
G1 X78.615 Y88.675 E.02215
G1 X78.944 Y88.049 E.02217
G1 X78.946 Y88.046 E.00011
M204 P1000
G1 X78.946 Y88.046 F9000
G1 X79.275 Y88.23
M204 P800
;TYPE:External perimeter
G1 F1200
G1 X79.679 Y87.742 E.01986
G1 X80.173 Y87.341 E.01995
G1 X80.736 Y87.042 E.01999
G1 X81.346 Y86.857 E.01999
G1 X81.982 Y86.792 E.02005
G1 X82.618 Y86.85 E.02002
G1 X83.231 Y87.028 E.02001
G1 X83.797 Y87.321 E.01998
G1 X84.294 Y87.716 E.01991
G1 X84.704 Y88.199 E.01986
G1 X85.01 Y88.752 E.01982
G1 X85.2 Y89.354 E.01979
G1 X85.267 Y89.981 E.01977
G1 X85.208 Y90.609 E.01978
G1 X85.025 Y91.213 E.01979
G1 X84.725 Y91.77 E.01984
G1 X84.321 Y92.258 E.01986
G1 X83.827 Y92.659 E.01995
G1 X83.264 Y92.958 E.01999
G1 X82.654 Y93.143 E.01999
G1 X82.018 Y93.208 E.02005
G1 X81.382 Y93.15 E.02002
G1 X80.769 Y92.972 E.02001
G1 X80.203 Y92.679 E.01998
G1 X79.706 Y92.284 E.01991
G1 X79.296 Y91.801 E.01986
G1 X78.99 Y91.248 E.01982
G1 X78.8 Y90.646 E.01979
G1 X78.733 Y90.019 E.01977
G1 X78.792 Y89.391 E.01978
G1 X78.975 Y88.787 E.01979
G1 X79.247 Y88.283 E.01796
M204 P1000
G1 E-2.24 F4200
;WIPE_START
G1 F7200
G1 X79.275 Y88.23 E-.03322
G1 X79.679 Y87.742 E-.35108
G1 X80.173 Y87.341 E-.3526
G1 X80.528 Y87.152 E-.2231
;WIPE_END
G1 Z.4 F720
G1 X104.335 Y67.4 F9000
G1 Z.2 F720
G1 E3.2 F2400
M204 P800
;TYPE:Solid infill
;WIDTH:0.42142
G1 F1200
G1 X104.93 Y67.996 E.0265
G1 X104.93 Y68.531 E.01684
G1 X103.969 Y67.57 E.04277
G1 X103.434 Y67.57 E.01684
G1 X104.93 Y69.066 E.06659
G1 X104.93 Y69.602 E.01687
G1 X102.898 Y67.57 E.09044
G1 X102.363 Y67.57 E.01684
G1 X104.93 Y70.137 E.11425
G1 X104.93 Y70.672 E.01684
G1 X101.828 Y67.57 E.13807
G1 X101.293 Y67.57 E.01684
G1 X104.93 Y71.207 E.16188
G1 X104.93 Y71.743 E.01687
G1 X100.757 Y67.57 E.18573
G1 X100.222 Y67.57 E.01684
G1 X104.93 Y72.278 E.20955
G1 X104.93 Y72.813 E.01684
G1 X99.687 Y67.57 E.23336
G1 X99.151 Y67.57 E.01687
G1 X104.93 Y73.349 E.25722
G1 X104.93 Y73.884 E.01684
G1 X98.616 Y67.57 E.28103
G1 X98.081 Y67.57 E.01684
G1 X104.93 Y74.419 E.30484
G1 X104.93 Y74.954 E.01684
G1 X97.546 Y67.57 E.32865
G1 X97.01 Y67.57 E.01687
G1 X104.93 Y75.49 E.35251
G1 X104.93 Y76.025 E.01684
G1 X96.475 Y67.57 E.37632
G1 X95.94 Y67.57 E.01684
G1 X104.93 Y76.56 E.40013
G1 X104.93 Y77.096 E.01687
G1 X95.404 Y67.57 E.42399
G1 X94.869 Y67.57 E.01684
G1 X104.93 Y77.631 E.4478
G1 X104.93 Y78.166 E.01684
G1 X94.334 Y67.57 E.47161
G1 X93.799 Y67.57 E.01684
G1 X104.93 Y78.701 E.49543
G1 X104.93 Y79.237 E.01687
G1 X93.263 Y67.57 E.51928
G1 X92.728 Y67.57 E.01684
G1 X104.93 Y79.772 E.5431
G1 X104.93 Y80.307 E.01684
G1 X92.193 Y67.57 E.56691
G1 X91.657 Y67.57 E.01687
G1 X104.93 Y80.843 E.59076
G1 X104.93 Y81.378 E.01684
G1 X91.122 Y67.57 E.61458
G1 X90.587 Y67.57 E.01684
G1 X104.93 Y81.913 E.63839
G1 X104.93 Y82.448 E.01684
G1 X90.052 Y67.57 E.6622
G1 X89.516 Y67.57 E.01687
G1 X104.93 Y82.984 E.68606
G1 X104.93 Y83.519 E.01684
G1 X88.981 Y67.57 E.70987
G1 X88.446 Y67.57 E.01684
G1 X104.93 Y84.054 E.73368
G1 X104.93 Y84.589 E.01684
G1 X87.911 Y67.57 E.75749
G1 X87.375 Y67.57 E.01687
G1 X104.93 Y85.125 E.78135
G1 X104.93 Y85.66 E.01684
G1 X86.84 Y67.57 E.80516
G1 X86.305 Y67.57 E.01684
G1 X104.93 Y86.195 E.82897
G1 X104.93 Y86.731 E.01687
G1 X85.769 Y67.57 E.85283
G1 X85.234 Y67.57 E.01684
G1 X104.93 Y87.266 E.87664
G1 X104.93 Y87.801 E.01684
G1 X84.699 Y67.57 E.90046
G1 X84.164 Y67.57 E.01684
G1 X104.93 Y88.336 E.92427
G1 X104.93 Y88.872 E.01687
G1 X83.628 Y67.57 E.94812
M73 P1 R123
G1 X83.093 Y67.57 E.01684
G1 X104.93 Y89.407 E.97194
G1 X104.93 Y89.942 E.01684
G1 X82.558 Y67.57 E.99575
G1 X82.022 Y67.57 E.01687
G1 X104.93 Y90.478 E1.01961
G1 X104.93 Y91.013 E.01684
G1 X81.487 Y67.57 E1.04342
G1 X80.952 Y67.57 E.01684
G1 X104.93 Y91.548 E1.06723
G1 X104.93 Y92.083 E.01684
G1 X80.417 Y67.57 E1.09104
G1 X79.881 Y67.57 E.01687
G1 X104.93 Y92.619 E1.1149
G1 X104.93 Y93.154 E.01684
G1 X79.346 Y67.57 E1.13871
G1 X78.811 Y67.57 E.01684
G1 X104.93 Y93.689 E1.16252
G1 X104.93 Y94.225 E.01687
G1 X78.275 Y67.57 E1.18638
G1 X77.74 Y67.57 E.01684
G1 X104.93 Y94.76 E1.21019
G1 X104.93 Y95.295 E.01684
G1 X77.205 Y67.57 E1.234
G1 X76.67 Y67.57 E.01684
G1 X104.93 Y95.83 E1.25782
G1 X104.93 Y96.366 E.01687
G1 X76.134 Y67.57 E1.28167
M73 P1 R122
G1 X75.599 Y67.57 E.01684
G1 X104.93 Y96.901 E1.30548
G1 X104.93 Y97.436 E.01684
G1 X75.07 Y67.576 E1.32903
G1 X75.07 Y68.111 E.01684
G1 X104.93 Y97.971 E1.32903
G1 X104.93 Y98.507 E.01687
G1 X75.07 Y68.647 E1.32903
G1 X75.07 Y69.182 E.01684
G1 X104.93 Y99.042 E1.32903
G1 X104.93 Y99.577 E.01684
G1 X75.07 Y69.717 E1.32903
G1 X75.07 Y70.252 E.01684
G1 X104.93 Y100.113 E1.32905
G1 X104.93 Y100.648 E.01684
G1 X75.07 Y70.788 E1.32903
G1 X75.07 Y71.323 E.01684
G1 X104.93 Y101.183 E1.32903
G1 X104.93 Y101.718 E.01684
G1 X75.07 Y71.858 E1.32903
G1 X75.07 Y72.393 E.01684
G1 X104.93 Y102.254 E1.32905
G1 X104.93 Y102.789 E.01684
G1 X75.07 Y72.929 E1.32903
G1 X75.07 Y73.464 E.01684
G1 X104.93 Y103.324 E1.32903
G1 X104.93 Y103.86 E.01687
G1 X75.07 Y73.999 E1.32905
G1 X75.07 Y74.535 E.01687
G1 X104.93 Y104.395 E1.32903
G1 X104.93 Y104.93 E.01684
G1 X75.07 Y75.07 E1.32903
G1 X75.07 Y75.605 E.01684
G1 X104.93 Y105.465 E1.32903
G1 X104.93 Y106.001 E.01687
G1 X75.07 Y76.14 E1.32905
G1 X75.07 Y76.676 E.01687
G1 X104.93 Y106.536 E1.32903
G1 X104.93 Y107.071 E.01684
G1 X75.07 Y77.211 E1.32903
G1 X75.07 Y77.746 E.01684
G1 X104.93 Y107.607 E1.32905
G1 X104.93 Y108.142 E.01684
G1 X85.774 Y88.985 E.85263
G1 X85.847 Y89.216 E.00762
G1 X85.891 Y89.638 E.01335
G1 X104.93 Y108.677 E.8474
G1 X104.93 Y109.212 E.01684
M73 P2 R122
G1 X85.909 Y90.191 E.8466
G1 X85.858 Y90.676 E.01535
G1 X104.93 Y109.748 E.84887
G1 X104.93 Y110.283 E.01684
G1 X85.747 Y91.1 E.85381
G1 X85.618 Y91.506 E.01341
G1 X104.93 Y110.818 E.85955
G1 X104.93 Y111.353 E.01684
G1 X85.428 Y91.851 E.86801
G1 X85.234 Y92.193 E.01237
G1 X104.93 Y111.889 E.87664
G1 X104.93 Y112.424 E.01684
G1 X84.988 Y92.482 E.88759
G1 X84.741 Y92.77 E.01194
G1 X104.401 Y112.43 E.87504
G1 X103.866 Y112.43 E.01684
M73 P2 R121
G1 X84.442 Y93.007 E.86451
G1 X84.142 Y93.242 E.01199
G1 X103.33 Y112.43 E.85403
G1 X102.795 Y112.43 E.01684
G1 X83.789 Y93.424 E.84593
G1 X83.429 Y93.599 E.0126
G1 X102.26 Y112.43 E.83814
G1 X101.725 Y112.43 E.01684
G1 X83.015 Y93.721 E.83274
G1 X82.755 Y93.797 E.00853
G1 X82.573 Y93.814 E.00575
G1 X101.189 Y112.43 E.82857
G1 X100.654 Y112.43 E.01684
G1 X82.085 Y93.861 E.82648
G1 X82.003 Y93.869 E.00259
G1 X81.503 Y93.815 E.01583
G1 X100.119 Y112.43 E.82855
G1 X99.583 Y112.43 E.01687
G1 X80.561 Y93.408 E.84664
M204 P1000
G1 E-2.24 F4200
;WIPE_START
G1 F7200
G1 X81.786 Y94.633 E-.96
;WIPE_END
G1 Z.4 F720
G1 X83.34 Y86.551 F9000
G1 Z.2 F720
G1 E3.2 F2400
M204 P800
G1 F1200
G1 X75.07 Y78.282 E.36806
G1 X75.07 Y78.817 E.01684
G1 X82.429 Y86.176 E.32754
G1 X81.86 Y86.142 E.01794
G1 X75.07 Y79.352 E.30221
G1 X75.07 Y79.887 E.01684
G1 X81.38 Y86.197 E.28085
G1 X81.165 Y86.222 E.00681
G1 X80.941 Y86.294 E.00741
G1 X75.07 Y80.423 E.26131
G1 X75.07 Y80.958 E.01684
G1 X80.535 Y86.423 E.24324
G1 X80.436 Y86.454 E.00326
G1 X80.174 Y86.597 E.00939
G1 X75.07 Y81.493 E.22717
G1 X75.07 Y82.029 E.01687
G1 X79.828 Y86.787 E.21177
G1 X79.527 Y87.021 E.012
G1 X75.07 Y82.564 E.19838
G1 X75.07 Y83.099 E.01684
G1 X79.235 Y87.264 E.18538
G1 X78.986 Y87.551 E.01196
G1 X75.07 Y83.634 E.17432
G1 X75.07 Y84.17 E.01687
G1 X78.747 Y87.847 E.16366
G1 X78.553 Y88.188 E.01235
G1 X75.07 Y84.705 E.15502
G1 X75.07 Y85.24 E.01684
G1 X78.37 Y88.54 E.14688
G1 X78.242 Y88.948 E.01346
G1 X75.07 Y85.775 E.1412
G1 X75.07 Y86.311 E.01687
G1 X78.131 Y89.372 E.13624
G1 X78.085 Y89.861 E.01546
G1 X75.07 Y86.846 E.13419
G1 X75.07 Y87.381 E.01684
G1 X78.113 Y90.424 E.13544
G1 X78.144 Y90.739 E.00996
G1 X78.252 Y91.099 E.01183
G1 X75.07 Y87.917 E.14163
G1 X75.07 Y88.452 E.01684
G1 X99.048 Y112.43 E1.06723
G1 X98.513 Y112.43 E.01684
G1 X75.07 Y88.987 E1.04342
G1 X75.07 Y89.522 E.01684
G1 X97.978 Y112.43 E1.01961
G1 X97.442 Y112.43 E.01687
G1 X75.07 Y90.058 E.99575
G1 X75.07 Y90.593 E.01684
G1 X96.907 Y112.43 E.97194
G1 X96.372 Y112.43 E.01684
G1 X75.07 Y91.128 E.94812
G1 X75.07 Y91.664 E.01687
G1 X95.836 Y112.43 E.92427
G1 X95.301 Y112.43 E.01684
G1 X75.07 Y92.199 E.90046
G1 X75.07 Y92.734 E.01684
G1 X94.766 Y112.43 E.87664
G1 X94.231 Y112.43 E.01684
G1 X75.07 Y93.269 E.85283
G1 X75.07 Y93.805 E.01687
G1 X93.695 Y112.43 E.82897
G1 X93.16 Y112.43 E.01684
G1 X75.07 Y94.34 E.80516
G1 X75.07 Y94.875 E.01684
G1 X92.625 Y112.43 E.78135
G1 X92.089 Y112.43 E.01687
G1 X75.07 Y95.411 E.75749
G1 X75.07 Y95.946 E.01684
G1 X91.554 Y112.43 E.73368
G1 X91.019 Y112.43 E.01684
G1 X75.07 Y96.481 E.70987
G1 X75.07 Y97.016 E.01684
G1 X90.484 Y112.43 E.68606
G1 X89.948 Y112.43 E.01687
G1 X75.07 Y97.552 E.6622
G1 X75.07 Y98.087 E.01684
G1 X89.413 Y112.43 E.63839
G1 X88.878 Y112.43 E.01684
G1 X75.07 Y98.622 E.61458
G1 X75.07 Y99.157 E.01684
G1 X88.343 Y112.43 E.59076
G1 X87.807 Y112.43 E.01687
G1 X75.07 Y99.693 E.56691
G1 X75.07 Y100.228 E.01684
G1 X87.272 Y112.43 E.5431
G1 X86.737 Y112.43 E.01684
G1 X75.07 Y100.763 E.51928
G1 X75.07 Y101.299 E.01687
G1 X86.201 Y112.43 E.49543
G1 X85.666 Y112.43 E.01684
G1 X75.07 Y101.834 E.47161
G1 X75.07 Y102.369 E.01684
G1 X85.131 Y112.43 E.4478
G1 X84.596 Y112.43 E.01684
G1 X75.07 Y102.904 E.42399
G1 X75.07 Y103.44 E.01687
G1 X84.06 Y112.43 E.40013
G1 X83.525 Y112.43 E.01684
G1 X75.07 Y103.975 E.37632
G1 X75.07 Y104.51 E.01684
G1 X82.99 Y112.43 E.35251
G1 X82.454 Y112.43 E.01687
G1 X75.07 Y105.046 E.32865
G1 X75.07 Y105.581 E.01684
G1 X81.919 Y112.43 E.30484
G1 X81.384 Y112.43 E.01684
G1 X75.07 Y106.116 E.28103
G1 X75.07 Y106.651 E.01684
G1 X80.849 Y112.43 E.25722
G1 X80.313 Y112.43 E.01687
G1 X75.07 Y107.187 E.23336
G1 X75.07 Y107.722 E.01684
G1 X79.778 Y112.43 E.20955
G1 X79.243 Y112.43 E.01684
M73 P2 R120
G1 X75.07 Y108.257 E.18573
G1 X75.07 Y108.793 E.01687
G1 X78.707 Y112.43 E.16188
G1 X78.172 Y112.43 E.01684
G1 X75.07 Y109.328 E.13807
G1 X75.07 Y109.863 E.01684
G1 X77.637 Y112.43 E.11425
G1 X77.102 Y112.43 E.01684
G1 X75.07 Y110.398 E.09044
G1 X75.07 Y110.934 E.01687
G1 X76.566 Y112.43 E.06659
G1 X76.031 Y112.43 E.01684
G1 X75.07 Y111.469 E.04277
G1 X75.07 Y112.004 E.01684
G1 X75.665 Y112.6 E.0265
M204 P1000
; stop printing object base_M2.stl id:0 copy 0
M106 S84.15
;LAYER_CHANGE
;Z:0.4
;HEIGHT:0.2
;BEFORE_LAYER_CHANGE
G92 E0.0
;0.4


G1 E-2.24 F4200
;WIPE_START
G1 F7200
G1 X75.07 Y112.004 E-.4667
G1 X75.07 Y111.469 E-.29648
G1 X75.321 Y111.72 E-.19682
;WIPE_END
G1 Z.4 F720
;AFTER_LAYER_CHANGE
;0.4
G1 Z.6
G1 X71.623 Y111.72 F9000
G1 Z.4 F720
G1 E3.2 F2400
;TYPE:Skirt/Brim
;WIDTH:0.42
G1 X71.623 Y66.5 E1.41784
G1 X72.015 Y65.193 E.04278
G1 X73.06 Y64.317 E.04275
G1 X74 Y64.123 E.03009
G1 X106 Y64.123 E1.00334
G1 X107.307 Y64.515 E.04278
G1 X108.183 Y65.56 E.04275
G1 X108.377 Y66.5 E.03009
G1 X108.377 Y113.5 E1.47365
G1 X107.985 Y114.807 E.04278
M73 P3 R120
G1 X106.94 Y115.683 E.04275
G1 X106 Y115.877 E.03009
G1 X74 Y115.877 E1.00334
G1 X72.693 Y115.485 E.04278
G1 X71.817 Y114.44 E.04275
G1 X71.623 Y113.5 E.03009
G1 X71.623 Y111.78 E.05393
; printing object base_M2.stl id:0 copy 0
G1 E-2.24 F4200
;WIPE_START
G1 F7200
G1 X71.623 Y111.72 E-.03325
G1 X71.623 Y110.048 E-.92675
;WIPE_END
G1 Z.6 F720
G1 X74.632 Y112.868 F9000
G1 Z.4 F720
G1 E3.2 F2400
M204 P800
;TYPE:Perimeter
;WIDTH:0.449999
G1 X74.632 Y67.132 E1.54811
G1 X105.368 Y67.132 E1.04038
G1 X105.368 Y79.243 E.40994
G1 X105.368 Y112.868 E1.13816
G1 X74.692 Y112.868 E1.03834
M204 P1000
G1 X74.225 Y113.275 F9000
M204 P800
;TYPE:External perimeter
G1 F1800
G1 X74.225 Y66.725 E1.57566
G1 X105.775 Y66.725 E1.06793
G1 X105.775 Y79.243 E.42372
G1 X105.775 Y113.275 E1.15194
G1 X74.285 Y113.275 E1.0659
M204 P1000
G1 E-2.24 F4200
;WIPE_START
G1 F7200
G1 X74.225 Y113.275 E-.03325
G1 X74.225 Y111.603 E-.92675
;WIPE_END
G1 Z.6 F720
G1 X78.789 Y88.68 F9000
G1 Z.4 F720
G1 E3.2 F2400
M204 P800
;TYPE:Perimeter
G1 F1500
G1 X79.071 Y88.141 E.02059
G1 X79.497 Y87.614 E.02294
G1 X80.018 Y87.18 E.02295
G1 X80.615 Y86.854 E.02302
G1 X81.277 Y86.648 E.02347
G1 X81.941 Y86.573 E.02262
G1 X82.62 Y86.627 E.02306
G1 X83.275 Y86.81 E.02302
G1 X83.882 Y87.115 E.02299
G1 X84.418 Y87.53 E.02295
G1 X84.861 Y88.041 E.02289
G1 X85.195 Y88.628 E.02286
G1 X85.407 Y89.269 E.02285
G1 X85.486 Y89.939 E.02284
G1 X85.431 Y90.611 E.02282
G1 X85.243 Y91.26 E.02287
