; generated by PrusaSlicer 2.7.2+win64 on 2024-03-08 at 09:40:12 UTC


;
;
; 

; external perimeters extrusion width = 0.45mm
; perimeters extrusion width = 0.45mm
; infill extrusion width = 0.45mm
; solid infill extrusion width = 0.45mm
; top infill extrusion width = 0.40mm
; first layer extrusion width = 0.42mm

M73 P0 R220
M73 Q0 S229
M201 X1000 Y1000 Z200 E5000 ; sets maximum accelerations, mm/sec^2
M203 X200 Y200 Z12 E120 ; sets maximum feedrates, mm / sec
M204 S1250 T1250 ; sets acceleration (S) and retract acceleration (R), mm/sec^2
M205 X8.00 Y8.00 Z0.40 E4.50 ; sets the jerk limits, mm/sec
M205 S0 T0 ; sets the minimum extruding and travel feed rate, mm/sec

; printing object panel_mount.stl id:0 copy 0
; stop printing object panel_mount.stl id:0 copy 0

;TYPE:Custom
M862.3 P "MK3S" ; printer model check
M862.1 P0.4 ; nozzle diameter check
M115 U3.13.1 ; tell printer latest fw version
G90 ; use absolute coordinates
M83 ; extruder relative mode
M104 S215 ; set extruder temp
M140 S60 ; set bed temp
M190 S60 ; wait for bed temp
M109 S215 ; wait for extruder temp
G28 W ; home all without mesh bed level
G80 X47.4344 Y22.4344 W155.131 H165.131 ; mesh bed levelling

G1 Z0.2 F720
G1 Y-3 F1000 ; go outside print area
G92 E0
G1 X60 E9 F1000 ; intro line
G1 X100 E12.5 F1000 ; intro line

G92 E0
M221 S95

; Don't change E values below. Excessive value can damage the printer.

M907 E538 ; set extruder motor current
G21 ; set units to millimeters
G90 ; use absolute coordinates
M83 ; use relative distances for extrusion

M900 K0.05 ; Filament gcode LA 1.5
M900 K30 ; Filament gcode LA 1.0




M107
;LAYER_CHANGE
;Z:0.2
;HEIGHT:0.2
G1 E-.8 F2100
G1 Z.6 F720
G1 X48.015 Y23.693 F10800
G1 Z.2 F720
G1 E.8 F2100
M204 S800
;TYPE:Skirt/Brim
;WIDTH:0.42
G1 F1200
G1 X49.06 Y22.817 E.04275
G1 X50 Y22.623 E.03009
G1 X200 Y22.623 E4.70314
G1 X201.307 Y23.015 E.04278
M73 P0 R219
G1 X202.183 Y24.06 E.04275
G1 X202.377 Y25 E.03009
G1 X202.377 Y185 E5.01669
G1 X201.985 Y186.307 E.04278
G1 X200.94 Y187.183 E.04275
G1 X200 Y187.377 E.03009
G1 X50 Y187.377 E4.70314
G1 X48.693 Y186.985 E.04278
M73 Q0 S228
G1 X47.817 Y185.94 E.04275
G1 X47.623 Y185 E.03009
G1 X47.623 Y25 E5.01669
G1 X47.997 Y23.75 E.04091
M204 S1000
; printing object panel_mount.stl id:0 copy 0
;WIPE_START
G1 F8640
G1 X48.015 Y23.693 E-.0138
G1 X49.06 Y22.817 E-.31486
G1 X50 Y22.623 E-.22162
G1 X51.081 Y22.623 E-.24972
;WIPE_END
G1 Z.6 F720
G1 X199.213 Y25.787 F10800
G1 Z.2 F720
G1 E.8 F2100
M204 S800
;TYPE:Perimeter
;WIDTH:0.419999
G1 F1200
G1 X199.213 Y100 E2.32689
G1 X199.213 Y184.213 E2.64044
G1 X50.787 Y184.213 E4.65379
G1 X50.787 Y25.787 E4.96733
G1 X199.153 Y25.787 E4.6519
M204 S1000
G1 X199.59 Y25.41 F10800
M204 S800
;TYPE:External perimeter
G1 F1200
G1 X199.59 Y100 E2.33871
G1 X199.59 Y184.59 E2.65226
M73 P0 R218
G1 X50.41 Y184.59 E4.67743
G1 X50.41 Y25.41 E4.99097
G1 X199.53 Y25.41 E4.67555
M73 Q0 S227
M204 S1000
;WIPE_START
G1 F8640
G1 X199.59 Y25.41 E-.01385
G1 X199.59 Y28.815 E-.78615
;WIPE_END
G1 Z.6 F720
G1 X199.043 Y26.719 F10800
G1 Z.2 F720
G1 E.8 F2100
M204 S800
;TYPE:Solid infill
;WIDTH:0.420185
G1 F1200
G1 X198.45 Y26.126 E.02631
G1 X197.917 Y26.126 E.01672
G1 X198.874 Y27.083 E.04246
G1 X198.874 Y27.617 E.01675
G1 X197.383 Y26.126 E.06615
G1 X196.85 Y26.126 E.01672
G1 X198.874 Y28.15 E.08979
G1 X198.874 Y28.684 E.01675
G1 X196.316 Y26.126 E.11348
G1 X195.783 Y26.126 E.01672
G1 X198.874 Y29.217 E.13713
G1 X198.874 Y29.751 E.01675
G1 X195.249 Y26.126 E.16082
G1 X194.716 Y26.126 E.01672
G1 X198.874 Y30.284 E.18446
G1 X198.874 Y30.818 E.01675
G1 X194.182 Y26.126 E.20815
G1 X193.648 Y26.126 E.01675
G1 X198.874 Y31.352 E.23184
G1 X198.874 Y31.885 E.01672
G1 X193.115 Y26.126 E.25549
G1 X192.581 Y26.126 E.01675
G1 X198.874 Y32.419 E.27918
G1 X198.874 Y32.952 E.01672
G1 X192.048 Y26.126 E.30283
G1 X191.514 Y26.126 E.01675
G1 X198.874 Y33.486 E.32652
G1 X198.874 Y34.019 E.01672
G1 X190.981 Y26.126 E.35016
G1 X190.447 Y26.126 E.01675
G1 X198.874 Y34.553 E.37385
G1 X198.874 Y35.086 E.01672
G1 X189.914 Y26.126 E.3975
G1 X189.38 Y26.126 E.01675
G1 X198.874 Y35.62 E.42119
G1 X198.874 Y36.153 E.01672
G1 X188.847 Y26.126 E.44483
G1 X188.313 Y26.126 E.01675
G1 X198.874 Y36.687 E.46852
G1 X198.874 Y37.22 E.01672
G1 X187.78 Y26.126 E.49217
G1 X187.246 Y26.126 E.01675
G1 X198.874 Y37.754 E.51586
G1 X198.874 Y38.287 E.01672
G1 X186.713 Y26.126 E.5395
G1 X186.179 Y26.126 E.01675
G1 X198.874 Y38.821 E.56319
G1 X198.874 Y39.355 E.01675
G1 X185.645 Y26.126 E.58688
G1 X185.112 Y26.126 E.01672
G1 X198.874 Y39.888 E.61053
G1 X198.874 Y40.422 E.01675
G1 X184.578 Y26.126 E.63422
G1 X184.045 Y26.126 E.01672
G1 X198.874 Y40.955 E.65787
G1 X198.874 Y41.489 E.01675
G1 X183.511 Y26.126 E.68156
G1 X182.978 Y26.126 E.01672
G1 X198.874 Y42.022 E.7052
G1 X198.874 Y42.556 E.01675
G1 X182.444 Y26.126 E.72889
G1 X181.911 Y26.126 E.01672
G1 X198.874 Y43.089 E.75254
G1 X198.874 Y43.623 E.01675
G1 X181.377 Y26.126 E.77623
G1 X180.844 Y26.126 E.01672
G1 X198.874 Y44.156 E.79987
G1 X198.874 Y44.69 E.01675
G1 X180.31 Y26.126 E.82356
G1 X179.777 Y26.126 E.01672
G1 X198.874 Y45.223 E.84721
G1 X198.874 Y45.757 E.01675
G1 X179.243 Y26.126 E.8709
G1 X178.71 Y26.126 E.01672
G1 X198.874 Y46.29 E.89455
G1 X198.874 Y46.824 E.01675
G1 X178.176 Y26.126 E.91824
G1 X177.642 Y26.126 E.01675
M73 P1 R218
G1 X198.874 Y47.358 E.94193
G1 X198.874 Y47.891 E.01672
M73 P1 R217
G1 X177.109 Y26.126 E.96557
G1 X176.575 Y26.126 E.01675
G1 X198.874 Y48.425 E.98926
G1 X198.874 Y48.958 E.01672
M73 Q1 S227
G1 X176.042 Y26.126 E1.01291
G1 X175.508 Y26.126 E.01675
G1 X198.874 Y49.492 E1.0366
G1 X198.874 Y50.025 E.01672
G1 X174.975 Y26.126 E1.06024
G1 X174.441 Y26.126 E.01675
G1 X198.874 Y50.559 E1.08393
G1 X198.874 Y51.092 E.01672
G1 X173.908 Y26.126 E1.10758
G1 X173.374 Y26.126 E.01675
G1 X198.874 Y51.626 E1.13127
G1 X198.874 Y52.159 E.01672
G1 X172.841 Y26.126 E1.15491
G1 X172.307 Y26.126 E.01675
M73 Q1 S226
G1 X198.874 Y52.693 E1.1786
G1 X198.874 Y53.226 E.01672
G1 X171.774 Y26.126 E1.20225
G1 X171.24 Y26.126 E.01675
G1 X198.874 Y53.76 E1.22594
G1 X198.874 Y54.293 E.01672
G1 X170.707 Y26.126 E1.24959
G1 X170.173 Y26.126 E.01675
G1 X198.874 Y54.827 E1.27328
G1 X198.874 Y55.361 E.01675
G1 X169.639 Y26.126 E1.29697
G1 X169.106 Y26.126 E.01672
G1 X198.874 Y55.894 E1.32061
G1 X198.874 Y56.428 E.01675
G1 X168.572 Y26.126 E1.3443
G1 X168.039 Y26.126 E.01672
G1 X198.874 Y56.961 E1.36795
G1 X198.874 Y57.495 E.01675
G1 X167.505 Y26.126 E1.39164
G1 X166.972 Y26.126 E.01672
G1 X198.874 Y58.028 E1.41528
G1 X198.874 Y58.562 E.01675
G1 X166.438 Y26.126 E1.43897
G1 X165.905 Y26.126 E.01672
G1 X198.874 Y59.095 E1.46262
G1 X198.874 Y59.629 E.01675
G1 X165.371 Y26.126 E1.48631
G1 X164.838 Y26.126 E.01672
G1 X198.874 Y60.162 E1.50996
G1 X198.874 Y60.696 E.01675
G1 X164.304 Y26.126 E1.53365
G1 X163.771 Y26.126 E.01672
G1 X198.874 Y61.229 E1.55729
G1 X198.874 Y61.763 E.01675
G1 X163.237 Y26.126 E1.58098
G1 X162.704 Y26.126 E.01672
G1 X198.874 Y62.296 E1.60463
G1 X198.874 Y62.83 E.01675
G1 X162.17 Y26.126 E1.62832
G1 X161.636 Y26.126 E.01675
M73 P1 R216
G1 X198.874 Y63.364 E1.65201
G1 X198.874 Y63.897 E.01672
G1 X161.103 Y26.126 E1.67565
G1 X160.569 Y26.126 E.01675
G1 X198.874 Y64.431 E1.69934
G1 X198.874 Y64.964 E.01672
G1 X160.036 Y26.126 E1.72299
G1 X159.502 Y26.126 E.01675
G1 X198.874 Y65.498 E1.74668
G1 X198.874 Y66.031 E.01672
G1 X158.969 Y26.126 E1.77032
G1 X158.435 Y26.126 E.01675
M73 Q1 S225
G1 X198.874 Y66.565 E1.79401
G1 X198.874 Y67.098 E.01672
G1 X157.902 Y26.126 E1.81766
G1 X157.368 Y26.126 E.01675
G1 X198.874 Y67.632 E1.84135
G1 X198.874 Y68.165 E.01672
G1 X156.835 Y26.126 E1.865
G1 X156.301 Y26.126 E.01675
G1 X198.874 Y68.699 E1.88869
G1 X198.874 Y69.232 E.01672
G1 X155.768 Y26.126 E1.91233
G1 X155.234 Y26.126 E.01675
G1 X198.874 Y69.766 E1.93602
G1 X198.874 Y70.299 E.01672
G1 X154.701 Y26.126 E1.95967
G1 X154.167 Y26.126 E.01675
G1 X198.874 Y70.833 E1.98336
G1 X198.874 Y71.367 E.01675
G1 X153.633 Y26.126 E2.00705
G1 X153.1 Y26.126 E.01672
G1 X198.874 Y71.9 E2.03069
G1 X198.874 Y72.434 E.01675
G1 X152.566 Y26.126 E2.05438
G1 X152.033 Y26.126 E.01672
G1 X198.874 Y72.967 E2.07803
G1 X198.874 Y73.501 E.01675
G1 X151.499 Y26.126 E2.10172
G1 X150.966 Y26.126 E.01672
M73 P1 R215
G1 X198.874 Y74.034 E2.12537
G1 X198.874 Y74.568 E.01675
G1 X150.432 Y26.126 E2.14906
G1 X149.899 Y26.126 E.01672
G1 X198.874 Y75.101 E2.1727
G1 X198.874 Y75.635 E.01675
M73 P2 R215
G1 X149.365 Y26.126 E2.19639
G1 X148.832 Y26.126 E.01672
M73 Q1 S224
G1 X198.874 Y76.168 E2.22004
G1 X198.874 Y76.702 E.01675
G1 X148.298 Y26.126 E2.24373
G1 X147.765 Y26.126 E.01672
M73 Q2 S224
G1 X198.874 Y77.235 E2.26737
G1 X198.874 Y77.769 E.01675
G1 X147.231 Y26.126 E2.29106
G1 X146.698 Y26.126 E.01672
G1 X198.874 Y78.302 E2.31471
G1 X198.874 Y78.836 E.01675
G1 X146.164 Y26.126 E2.3384
G1 X145.63 Y26.126 E.01675
G1 X198.874 Y79.37 E2.36209
G1 X198.874 Y79.903 E.01672
G1 X145.097 Y26.126 E2.38573
G1 X144.563 Y26.126 E.01675
G1 X198.874 Y80.437 E2.40942
G1 X198.874 Y80.97 E.01672
G1 X144.03 Y26.126 E2.43307
G1 X143.496 Y26.126 E.01675
G1 X198.874 Y81.504 E2.45676
G1 X198.874 Y82.037 E.01672
G1 X142.963 Y26.126 E2.48041
G1 X142.429 Y26.126 E.01675
M73 P2 R214
G1 X198.874 Y82.571 E2.5041
G1 X198.874 Y83.104 E.01672
G1 X141.896 Y26.126 E2.52774
G1 X141.362 Y26.126 E.01675
G1 X198.874 Y83.638 E2.55143
G1 X198.874 Y84.171 E.01672
G1 X140.829 Y26.126 E2.57508
G1 X140.295 Y26.126 E.01675
M73 Q2 S223
G1 X198.874 Y84.705 E2.59877
G1 X198.874 Y85.238 E.01672
G1 X139.762 Y26.126 E2.62241
G1 X139.228 Y26.126 E.01675
G1 X198.874 Y85.772 E2.6461
G1 X198.874 Y86.305 E.01672
G1 X138.695 Y26.126 E2.66975
G1 X138.161 Y26.126 E.01675
G1 X198.874 Y86.839 E2.69344
G1 X198.874 Y87.373 E.01675
G1 X137.627 Y26.126 E2.71713
G1 X137.094 Y26.126 E.01672
G1 X198.874 Y87.906 E2.74078
G1 X198.874 Y88.44 E.01675
G1 X136.56 Y26.126 E2.76447
G1 X136.027 Y26.126 E.01672
G1 X198.874 Y88.973 E2.78811
G1 X198.874 Y89.507 E.01675
G1 X135.493 Y26.126 E2.8118
G1 X134.96 Y26.126 E.01672
M73 P2 R213
G1 X198.874 Y90.04 E2.83545
G1 X198.874 Y90.574 E.01675
G1 X134.426 Y26.126 E2.85914
G1 X133.893 Y26.126 E.01672
G1 X198.874 Y91.107 E2.88278
G1 X198.874 Y91.641 E.01675
G1 X133.359 Y26.126 E2.90647
G1 X132.826 Y26.126 E.01672
M73 Q2 S222
G1 X198.874 Y92.174 E2.93012
G1 X198.874 Y92.708 E.01675
M73 P3 R213
G1 X132.292 Y26.126 E2.95381
G1 X131.759 Y26.126 E.01672
G1 X198.874 Y93.241 E2.97745
G1 X198.874 Y93.775 E.01675
G1 X131.225 Y26.126 E3.00114
G1 X130.692 Y26.126 E.01672
M73 Q3 S222
G1 X198.874 Y94.308 E3.02479
G1 X198.874 Y94.842 E.01675
G1 X130.158 Y26.126 E3.04848
G1 X129.624 Y26.126 E.01675
G1 X198.874 Y95.376 E3.07217
G1 X198.874 Y95.909 E.01672
G1 X129.091 Y26.126 E3.09582
G1 X128.557 Y26.126 E.01675
G1 X198.874 Y96.443 E3.11951
G1 X198.874 Y96.976 E.01672
M73 P3 R212
G1 X128.024 Y26.126 E3.14315
G1 X127.49 Y26.126 E.01675
G1 X198.874 Y97.51 E3.16684
G1 X198.874 Y98.043 E.01672
G1 X126.957 Y26.126 E3.19049
G1 X126.423 Y26.126 E.01675
M73 Q3 S221
G1 X198.874 Y98.577 E3.21418
G1 X198.874 Y99.11 E.01672
G1 X125.89 Y26.126 E3.23782
G1 X125.356 Y26.126 E.01675
G1 X198.874 Y99.644 E3.26151
G1 X198.874 Y100.177 E.01672
G1 X124.823 Y26.126 E3.28516
G1 X124.289 Y26.126 E.01675
G1 X198.874 Y100.711 E3.30885
G1 X198.874 Y101.244 E.01672
G1 X123.756 Y26.126 E3.3325
G1 X123.222 Y26.126 E.01675
G1 X198.874 Y101.778 E3.35619
G1 X198.874 Y102.311 E.01672
G1 X122.689 Y26.126 E3.37983
G1 X122.155 Y26.126 E.01675
M73 P3 R211
G1 X198.874 Y102.845 E3.40352
G1 X198.874 Y103.379 E.01675
G1 X121.621 Y26.126 E3.42721
G1 X121.088 Y26.126 E.01672
G1 X198.874 Y103.912 E3.45086
G1 X198.874 Y104.446 E.01675
M73 Q3 S220
G1 X120.554 Y26.126 E3.47455
G1 X120.021 Y26.126 E.01672
G1 X198.874 Y104.979 E3.49819
G1 X198.874 Y105.513 E.01675
G1 X119.487 Y26.126 E3.52188
G1 X118.954 Y26.126 E.01672
G1 X198.874 Y106.046 E3.54553
G1 X198.874 Y106.58 E.01675
M73 P4 R211
G1 X118.42 Y26.126 E3.56922
G1 X117.887 Y26.126 E.01672
G1 X198.874 Y107.113 E3.59286
G1 X198.874 Y107.647 E.01675
G1 X117.353 Y26.126 E3.61655
G1 X116.82 Y26.126 E.01672
M73 Q4 S220
G1 X198.874 Y108.18 E3.6402
G1 X198.874 Y108.714 E.01675
M73 P4 R210
G1 X116.286 Y26.126 E3.66389
G1 X115.753 Y26.126 E.01672
G1 X198.874 Y109.247 E3.68754
G1 X198.874 Y109.781 E.01675
G1 X115.219 Y26.126 E3.71123
G1 X114.686 Y26.126 E.01672
M73 Q4 S219
G1 X198.874 Y110.314 E3.73487
G1 X198.874 Y110.848 E.01675
G1 X114.152 Y26.126 E3.75856
G1 X113.618 Y26.126 E.01675
G1 X198.874 Y111.382 E3.78225
G1 X198.874 Y111.915 E.01672
G1 X113.085 Y26.126 E3.8059
G1 X112.551 Y26.126 E.01675
G1 X198.874 Y112.449 E3.82959
G1 X198.874 Y112.982 E.01672
G1 X112.018 Y26.126 E3.85323
G1 X111.484 Y26.126 E.01675
G1 X198.874 Y113.516 E3.87692
G1 X198.874 Y114.049 E.01672
M73 P4 R209
G1 X110.951 Y26.126 E3.90057
G1 X110.417 Y26.126 E.01675
G1 X198.874 Y114.583 E3.92426
G1 X198.874 Y115.116 E.01672
M73 Q4 S218
G1 X109.884 Y26.126 E3.94791
G1 X109.35 Y26.126 E.01675
G1 X198.874 Y115.65 E3.9716
G1 X198.874 Y116.183 E.01672
G1 X108.817 Y26.126 E3.99524
G1 X108.283 Y26.126 E.01675
G1 X198.874 Y116.717 E4.01893
G1 X198.874 Y117.25 E.01672
G1 X107.75 Y26.126 E4.04258
G1 X107.216 Y26.126 E.01675
M73 P5 R209
G1 X198.874 Y117.784 E4.06627
G1 X198.874 Y118.317 E.01672
G1 X106.683 Y26.126 E4.08991
G1 X106.149 Y26.126 E.01675
M73 P5 R208
G1 X198.874 Y118.851 E4.1136
G1 X198.874 Y119.385 E.01675
G1 X105.615 Y26.126 E4.13729
G1 X105.082 Y26.126 E.01672
M73 Q5 S218
G1 X198.874 Y119.918 E4.16094
G1 X198.874 Y120.452 E.01675
M73 Q5 S217
G1 X104.548 Y26.126 E4.18463
G1 X104.015 Y26.126 E.01672
G1 X198.874 Y120.985 E4.20827
G1 X198.874 Y121.519 E.01675
G1 X103.481 Y26.126 E4.23197
G1 X102.948 Y26.126 E.01672
G1 X198.874 Y122.052 E4.25561
G1 X198.874 Y122.586 E.01675
G1 X102.414 Y26.126 E4.2793
G1 X101.881 Y26.126 E.01672
G1 X198.874 Y123.119 E4.30295
G1 X198.874 Y123.653 E.01675
M73 P5 R207
G1 X101.347 Y26.126 E4.32664
G1 X100.814 Y26.126 E.01672
G1 X198.874 Y124.186 E4.35028
G1 X198.874 Y124.72 E.01675
M73 Q5 S216
G1 X100.28 Y26.126 E4.37397
G1 X99.747 Y26.126 E.01672
G1 X198.874 Y125.253 E4.39762
G1 X198.874 Y125.787 E.01675
G1 X99.213 Y26.126 E4.42131
G1 X98.68 Y26.126 E.01672
G1 X198.874 Y126.32 E4.44495
G1 X198.874 Y126.854 E.01675
G1 X98.146 Y26.126 E4.46864
G1 X97.612 Y26.126 E.01675
G1 X198.874 Y127.388 E4.49233
G1 X198.874 Y127.921 E.01672
G1 X97.079 Y26.126 E4.51598
M73 P6 R207
G1 X96.545 Y26.126 E.01675
M73 P6 R206
G1 X198.874 Y128.455 E4.53967
G1 X198.874 Y128.988 E.01672
G1 X96.012 Y26.126 E4.56332
G1 X95.478 Y26.126 E.01675
M73 Q5 S215
G1 X198.874 Y129.522 E4.58701
G1 X198.874 Y130.055 E.01672
G1 X94.945 Y26.126 E4.61065
G1 X94.411 Y26.126 E.01675
M73 Q6 S215
G1 X198.874 Y130.589 E4.63434
G1 X198.874 Y131.122 E.01672
G1 X93.878 Y26.126 E4.65799
G1 X93.344 Y26.126 E.01675
G1 X198.874 Y131.656 E4.68168
G1 X198.874 Y132.189 E.01672
G1 X92.811 Y26.126 E4.70532
G1 X92.277 Y26.126 E.01675
M73 P6 R205
G1 X198.874 Y132.723 E4.72901
G1 X198.874 Y133.256 E.01672
G1 X91.744 Y26.126 E4.75266
G1 X91.21 Y26.126 E.01675
M73 Q6 S214
G1 X198.874 Y133.79 E4.77635
G1 X198.874 Y134.323 E.01672
G1 X90.677 Y26.126 E4.79999
G1 X90.143 Y26.126 E.01675
G1 X198.874 Y134.857 E4.82369
G1 X198.874 Y135.391 E.01675
G1 X89.609 Y26.126 E4.84738
G1 X89.076 Y26.126 E.01672
G1 X198.874 Y135.924 E4.87102
G1 X198.874 Y136.458 E.01675
G1 X88.542 Y26.126 E4.89471
G1 X88.009 Y26.126 E.01672
M73 P6 R204
G1 X198.874 Y136.991 E4.91836
G1 X198.874 Y137.525 E.01675
M73 P7 R204
G1 X87.475 Y26.126 E4.94205
G1 X86.942 Y26.126 E.01672
M73 Q6 S213
G1 X198.874 Y138.058 E4.96569
G1 X198.874 Y138.592 E.01675
G1 X86.408 Y26.126 E4.98938
G1 X85.875 Y26.126 E.01672
G1 X198.874 Y139.125 E5.01303
G1 X198.874 Y139.659 E.01675
G1 X85.341 Y26.126 E5.03672
G1 X84.808 Y26.126 E.01672
M73 Q7 S213
G1 X198.874 Y140.192 E5.06036
G1 X198.874 Y140.726 E.01675
M73 P7 R203
G1 X84.274 Y26.126 E5.08405
G1 X83.741 Y26.126 E.01672
G1 X198.874 Y141.259 E5.1077
G1 X198.874 Y141.793 E.01675
M73 Q7 S212
G1 X83.207 Y26.126 E5.13139
G1 X82.674 Y26.126 E.01672
G1 X198.874 Y142.326 E5.15504
